X:2199
T:Dan my chree - Ny shen my graih
T:I am the lad 
C:Traditional
O:Isle of Man
Z:Clague collection
B:Kiaull Vannin #199 
L:1/4
M:2/4 
Q:80 
K:G 
d B|c d|e F|A G|G A|B g|f e|A2|B>c|d>d|e F|A G|f>f|gd|B A|G2| 
B/c/ B/A/|G d|B B/A/|G2|c>d|e d|B G|A2|d d/c/|B/d/ g| e e/d/|c/B/ A|f>f|g d/c/|B A|G2||

